!!!OTL: UND E BISSERLE LIEB UND E BISSERLE TREU
!!!ARE: Europa, Mitteleuropa, Deutschland, bayrisches Gebirge
!!!SCT: Z0255A
!!!YEM: Copyright 1995, estate of Helmut Schaffrath.
**kern
*ICvox
*Ivox
*M3/8
*k[b-]
*F:
{16f
16a
=1
8cc
8.cc
16cc
=2
8dd
8.cc
16a
=3
8cc
8.b-
16g
=4
4a}
{16f
16a
=5
8a
8.g
16g
=6
8g
8.f
16f
=7
8g
8.cc
16e
=8
4f}
==
!!!AGN: lyrisches Lied, Romanze
!!!ONB: ESAC (Essen Associative Code) Database: ZUCCAL
!!!AMT: simple triple
!!!AIN: vox
!!!EED: Helmut Schaffrath
!!!EEV: 1.0
*-
